icons/flip-vertical-32.svg

<svg xmlns="http://www.w3.org/2000/svg" viewBox="0 0 32 32"><path d="M23 3H8l7.5 11zm-1.892 1L15.5 12.225 9.892 4zM15.5 19L23 30H8zM10 17H7v-1h3zm7 0v-1h3v1zm-5 0v-1h3v1zM2 16h3v1H2zm20 0h3v1h-3zm8 0v1h-3v-1z"/><path fill="none" d="M0 0h32v32H0z"/></svg>

<svg id="icons" xmlns="http://www.w3.org/2000/svg" viewBox="0 0 32 32"><defs><style>.cls-1{fill:none;}</style></defs><path d="M23,3H8l7.5,11ZM21.10791,4,15.5,12.22461,9.89209,4ZM15.5,19,23,30H8ZM10,17H7V16h3Zm7,0V16h3v1Zm-5,0V16h3v1ZM2,16H5v1H2Zm20,0h3v1H22Zm8,0v1H27V16Z"/><rect class="cls-1" width="32" height="32"/></svg>
